app/assets/images/icons/instagram.svg

<svg id="Layer_1" data-name="Layer 1" xmlns="http://www.w3.org/2000/svg" width="42.01" height="42.01" viewBox="0 0 42.01 42.01"><defs><style>.cls-1{fill:#fff;}</style></defs><title>instagram</title><path class="cls-1" d="M37.25,35.49V17.77H33.56a11.77,11.77,0,0,1,.57,3.58,12.12,12.12,0,0,1-1.75,6.36,12.76,12.76,0,0,1-4.76,4.59A13.13,13.13,0,0,1,21.06,34a12.78,12.78,0,0,1-9.19-3.71,12,12,0,0,1-3.83-9,11.77,11.77,0,0,1,.49-3.56H4.68V35.49a1.63,1.63,0,0,0,1.6,1.67h29.3a1.63,1.63,0,0,0,1.17-.47A1.59,1.59,0,0,0,37.25,35.49ZM29.48,20.92A7.75,7.75,0,0,0,27,15.14a8.28,8.28,0,0,0-6-2.4,8.25,8.25,0,0,0-5.91,2.39,7.75,7.75,0,0,0-2.47,5.78,7.75,7.75,0,0,0,2.47,5.79A8.25,8.25,0,0,0,21,29.1a8.28,8.28,0,0,0,6-2.4A7.75,7.75,0,0,0,29.48,20.92Zm7.76-9.84V6.56a1.84,1.84,0,0,0-.54-1.31,1.8,1.8,0,0,0-1.31-.56H30.61a1.8,1.8,0,0,0-1.31.56,1.84,1.84,0,0,0-.54,1.31v4.52A1.87,1.87,0,0,0,30.6,13h4.8a1.87,1.87,0,0,0,1.85-1.89h0ZM42,5.39V36.62A5.41,5.41,0,0,1,36.62,42H5.39a5.19,5.19,0,0,1-3.8-1.59A5.19,5.19,0,0,1,0,36.62V5.39a5.19,5.19,0,0,1,1.59-3.8A5.19,5.19,0,0,1,5.39,0H36.62a5.19,5.19,0,0,1,3.8,1.59A5.19,5.19,0,0,1,42,5.39Z"/></svg>

<?xml version="1.0" encoding="utf-8"?>
<!-- Generator: Adobe Illustrator 22.0.1, SVG Export Plug-In . SVG Version: 6.00 Build 0)  -->
<svg version="1.1" id="Layer_1" xmlns="http://www.w3.org/2000/svg" xmlns:xlink="http://www.w3.org/1999/xlink" x="0px" y="0px"
	 viewBox="0 0 42 42" style="enable-background:new 0 0 42 42;" xml:space="preserve">
<style type="text/css">
	.st0{fill:#561346;}
</style>
<title>instagram</title>
<path class="st0" d="M37.3,35.5V17.8h-3.7c0.4,1.2,0.6,2.4,0.6,3.6c0,2.2-0.6,4.4-1.8,6.4c-1.2,1.9-2.8,3.5-4.8,4.6
	c-2,1.1-4.3,1.7-6.6,1.7c-3.4,0-6.8-1.3-9.2-3.7C9.4,28,8,24.7,8,21.3c0-1.2,0.1-2.4,0.5-3.6H4.7v17.8c0,0.9,0.7,1.6,1.6,1.7
	c0,0,0,0,0,0h29.3c0.4,0,0.9-0.2,1.2-0.5C37.1,36.4,37.3,35.9,37.3,35.5z M29.5,20.9c0-2.2-0.9-4.3-2.5-5.8c-1.6-1.6-3.8-2.4-6-2.4
	c-2.2,0-4.3,0.8-5.9,2.4c-1.6,1.5-2.5,3.6-2.5,5.8c0,2.2,0.9,4.3,2.5,5.8c1.6,1.6,3.7,2.4,5.9,2.4c2.2,0,4.4-0.8,6-2.4
	C28.6,25.2,29.5,23.1,29.5,20.9z M37.2,11.1V6.6c0-0.5-0.2-1-0.5-1.3c-0.3-0.4-0.8-0.6-1.3-0.6h-4.8c-0.5,0-1,0.2-1.3,0.6
	c-0.3,0.3-0.5,0.8-0.5,1.3v4.5c0,1,0.8,1.9,1.8,1.9c0,0,0,0,0,0h4.8C36.4,13,37.3,12.1,37.2,11.1C37.3,11.1,37.3,11.1,37.2,11.1
	L37.2,11.1L37.2,11.1z M42,5.4v31.2c0,3-2.4,5.4-5.4,5.4H5.4c-1.4,0-2.8-0.6-3.8-1.6c-1-1-1.6-2.4-1.6-3.8V5.4C0,4,0.6,2.6,1.6,1.6
	C2.6,0.6,4,0,5.4,0h31.2c1.4,0,2.8,0.6,3.8,1.6C41.4,2.6,42,4,42,5.4z"/>
</svg>
